assets/image-juntos-a-distancia.svg

<svg width="96" height="96" viewBox="0 0 96 96" fill="none" xmlns="http://www.w3.org/2000/svg">
<path d="M94.4011 51.198C93.9812 51.198 93.5785 51.3648 93.2816 51.6616C92.9847 51.9585 92.8179 52.3612 92.8179 52.7811V68.8022C92.82 69.4348 92.697 70.0615 92.4559 70.6464C92.2147 71.2312 91.8603 71.7626 91.413 72.2099C90.9657 72.6572 90.4343 73.0117 89.8495 73.2528C89.2646 73.4939 88.6379 73.6169 88.0053 73.6149H86.4222V70.4486C86.4219 68.9995 85.929 67.5935 85.0242 66.4615C84.1195 65.3295 82.8567 64.5387 81.4433 64.2191C82.5884 62.8148 83.2171 61.0601 83.2243 59.2481V52.8048C83.2232 51.7522 83.0147 50.7101 82.6107 49.7381C82.2067 48.7661 81.6151 47.8832 80.8696 47.14C80.1242 46.3968 79.2396 45.8078 78.2664 45.4066C77.2932 45.0055 76.2505 44.8001 75.1979 44.8022H68.8021C68.3822 44.8022 67.9796 44.969 67.6827 45.2659C67.3858 45.5628 67.219 45.9654 67.219 46.3853V59.2006C67.2262 61.0126 67.8549 62.7673 69 64.1716C67.5864 64.4923 66.3235 65.2831 65.4177 66.4147C64.5118 67.5462 64.0167 68.9517 64.0132 70.4011V73.5674H59.2005V71.7072C60.1307 71.3783 60.9354 70.7679 61.5028 69.9608C62.0702 69.1537 62.3722 68.1898 62.3668 67.2032V65.6201C62.3668 64.3479 61.8614 63.1278 60.9618 62.2282C60.0622 61.3287 58.8421 60.8233 57.5699 60.8233C56.2977 60.8233 55.0776 61.3287 54.178 62.2282C53.2785 63.1278 52.7731 64.3479 52.7731 65.6201V67.2032C52.7676 68.1898 53.0696 69.1537 53.637 69.9608C54.2044 70.7679 55.0091 71.3783 55.9393 71.7072V73.6149H49.5989V39.9974H88.0053C88.4251 39.9974 88.8278 39.8306 89.1247 39.5338C89.4216 39.2369 89.5884 38.8342 89.5884 38.4143C89.5884 37.9945 89.4216 37.5918 89.1247 37.2949C88.8278 36.998 88.4251 36.8312 88.0053 36.8312H83.2005V33.665C83.1967 32.2695 82.732 30.9143 81.8786 29.8101C83.2735 28.7713 84.4078 27.4225 85.1922 25.8702C85.9766 24.318 86.3895 22.6047 86.3984 20.8655C86.4155 18.0665 85.615 15.3233 84.0952 12.9728C82.5754 10.6222 80.4024 8.76654 77.8429 7.63347C75.2834 6.50039 72.4488 6.13924 69.6869 6.59433C66.9251 7.04942 64.3562 8.30095 62.2955 10.1953C62.1071 9.30729 61.6709 8.49081 61.0375 7.84045C60.4042 7.1901 59.5995 6.73249 58.7168 6.52062C57.834 6.30876 56.9093 6.35131 56.0498 6.64334C55.1902 6.93538 54.431 7.46495 53.86 8.17072C53.289 8.87649 52.9297 9.72958 52.8236 10.6312C52.7175 11.5328 52.869 12.446 53.2605 13.265C53.6521 14.084 54.2676 14.7754 55.0359 15.259C55.8042 15.7426 56.6938 15.9986 57.6016 15.9974C57.8939 15.9963 58.1855 15.9671 58.4723 15.9104C57.8992 17.4778 57.6045 19.1333 57.6016 20.8022C57.6108 22.5421 58.0247 24.2561 58.8105 25.8085C59.5963 27.3609 60.7325 28.7092 62.1293 29.7468C61.2731 30.85 60.8056 32.2052 60.7995 33.6017V36.7679H49.5989V8.00271C49.5989 7.58284 49.4322 7.18017 49.1353 6.88328C48.8384 6.58639 48.4357 6.4196 48.0158 6.4196C47.596 6.4196 47.1933 6.58639 46.8964 6.88328C46.5995 7.18017 46.4327 7.58284 46.4327 8.00271V36.7995H17.6042V33.6333C17.6042 32.7936 17.9378 31.9882 18.5316 31.3945C19.1254 30.8007 19.9307 30.4671 20.7704 30.4671H30.4037C31.0628 30.4676 31.7054 30.6737 32.2418 31.0569C32.7781 31.44 33.1816 31.9809 33.3958 32.6043C33.5469 33.0042 33.8508 33.3277 34.2404 33.5036C34.6301 33.6795 35.0737 33.6934 35.4736 33.5423C35.8735 33.3911 36.197 33.0873 36.3729 32.6976C36.5489 32.308 36.5628 31.8644 36.4116 31.4645C36.0507 30.4516 35.44 29.5462 34.6361 28.8323C33.8322 28.1183 32.861 27.6188 31.8127 27.38C32.9624 25.9747 33.594 24.2168 33.6016 22.4011V15.9974C33.5362 13.9196 32.6648 11.9488 31.1719 10.5021C29.679 9.05541 27.6818 8.24645 25.6029 8.24645C23.524 8.24645 21.5268 9.05541 20.0339 10.5021C18.541 11.9488 17.6696 13.9196 17.6042 15.9974V22.4011C17.6114 24.2131 18.2401 25.9678 19.3852 27.3721C17.9717 27.6928 16.7087 28.4836 15.8029 29.6152C14.897 30.7468 14.4019 32.1522 14.3984 33.6017V36.7679H3.16623V27.198C3.16623 26.7781 2.99944 26.3754 2.70254 26.0785C2.40565 25.7816 2.00298 25.6148 1.58311 25.6148C1.16325 25.6148 0.760575 25.7816 0.463683 26.0785C0.166792 26.3754 0 26.7781 0 27.198L0 68.8022C0.0104453 70.9192 0.857685 72.9462 2.35689 74.441C3.85609 75.9357 5.88559 76.7769 8.00264 76.7811H32.8892L29.2876 86.3985H22.4011C20.2799 86.4027 18.2468 87.2472 16.747 88.747C15.2471 90.2469 14.4026 92.28 14.3984 94.4011C14.3984 94.821 14.5652 95.2237 14.8621 95.5206C15.159 95.8175 15.5617 95.9842 15.9815 95.9842H57.6016C58.0214 95.9842 58.4241 95.8175 58.721 95.5206C59.0179 95.2237 59.1847 94.821 59.1847 94.4011C59.1847 93.9813 59.0179 93.5786 58.721 93.2817C58.4241 92.9848 58.0214 92.818 57.6016 92.818H17.8734C18.2105 91.8885 18.8263 91.0857 19.6366 90.519C20.4469 89.9524 21.4123 89.6495 22.4011 89.6518H73.6148C74.6035 89.6495 75.5689 89.9524 76.3792 90.519C77.1895 91.0857 77.8053 91.8885 78.1425 92.818H63.9974C63.5775 92.818 63.1748 92.9848 62.8779 93.2817C62.581 93.5786 62.4142 93.9813 62.4142 94.4011C62.4142 94.821 62.581 95.2237 62.8779 95.5206C63.1748 95.8175 63.5775 95.9842 63.9974 95.9842H80.0026C80.4225 95.9842 80.8252 95.8175 81.1221 95.5206C81.419 95.2237 81.5857 94.821 81.5857 94.4011C81.5816 92.2854 80.7415 90.2571 79.2484 88.7582C77.7554 87.2592 75.7304 86.411 73.6148 86.3985H66.7282L63.1108 76.7811H88.0053C90.1257 76.7769 92.1579 75.9322 93.6566 74.4321C95.1552 72.932 95.9979 70.8989 96 68.7784V52.8048C96 52.385 95.8332 51.9823 95.5363 51.6854C95.2394 51.3885 94.8368 51.2217 94.4169 51.2217L94.4011 51.198ZM56.0026 65.6043C56.0026 65.1844 56.1694 64.7818 56.4663 64.4849C56.7632 64.188 57.1659 64.0212 57.5858 64.0212C58.0056 64.0212 58.4083 64.188 58.7052 64.4849C59.0021 64.7818 59.1689 65.1844 59.1689 65.6043V67.1874C59.1689 67.6073 59.0021 68.0099 58.7052 68.3068C58.4083 68.6037 58.0056 68.7705 57.5858 68.7705C57.1659 68.7705 56.7632 68.6037 56.4663 68.3068C56.1694 68.0099 56.0026 67.6073 56.0026 67.1874V65.6043ZM56.0026 11.2006C56.0026 10.8875 56.0955 10.5814 56.2694 10.3211C56.4434 10.0607 56.6906 9.85782 56.9799 9.738C57.2692 9.61817 57.5875 9.58682 57.8946 9.64791C58.2017 9.70899 58.4838 9.85977 58.7052 10.0812C58.9266 10.3026 59.0774 10.5847 59.1384 10.8918C59.1995 11.1988 59.1682 11.5172 59.0484 11.8064C58.9285 12.0957 58.7256 12.343 58.4653 12.5169C58.2049 12.6909 57.8989 12.7837 57.5858 12.7837C57.1659 12.7837 56.7632 12.6169 56.4663 12.32C56.1694 12.0231 56.0026 11.6205 56.0026 11.2006ZM60.7995 20.8022C60.7995 17.8316 61.9795 14.9827 64.08 12.8822C66.1805 10.7817 69.0294 9.60166 72 9.60166C74.9706 9.60166 77.8195 10.7817 79.92 12.8822C82.0205 14.9827 83.2005 17.8316 83.2005 20.8022C83.1936 22.1934 82.8251 23.559 82.1312 24.7649C81.4374 25.9708 80.442 26.9756 79.2427 27.6808C78.9177 27.5456 78.5813 27.4396 78.2375 27.3642C79.3809 25.962 80.0095 24.2104 80.0185 22.4011V19.2349C80.0185 18.815 79.8517 18.4124 79.5548 18.1155C79.2579 17.8186 78.8552 17.6518 78.4353 17.6518C77.6244 17.6501 76.8217 17.4884 76.0733 17.1759C75.3249 16.8635 74.6454 16.4066 74.0739 15.8312L73.1319 14.8893C72.9845 14.7385 72.8084 14.6187 72.614 14.5369C72.4196 14.4551 72.2109 14.4129 72 14.4129C71.7891 14.4129 71.5803 14.4551 71.386 14.5369C71.1916 14.6187 71.0155 14.7385 70.8681 14.8893L69.934 15.8312C68.7831 16.9761 67.2276 17.6216 65.6042 17.628C65.1843 17.628 64.7817 17.7948 64.4848 18.0917C64.1879 18.3886 64.0211 18.7913 64.0211 19.2112V22.3774C64.0305 24.1903 64.662 25.9451 65.81 27.3484C65.4665 27.4251 65.1302 27.531 64.8047 27.665C63.6033 26.9603 62.6063 25.9545 61.9122 24.7468C61.2182 23.5391 60.851 22.1713 60.847 20.7784L60.7995 20.8022ZM67.2032 22.3853V20.6597C68.9978 20.3478 70.6638 19.523 72 18.285C73.3404 19.5214 75.0084 20.3458 76.8047 20.6597V22.4011C76.7544 23.6406 76.2266 24.8127 75.3318 25.6719C74.437 26.5311 73.2445 27.0109 72.004 27.0109C70.7634 27.0109 69.5709 26.5311 68.6761 25.6719C67.7813 24.8127 67.2535 23.6406 67.2032 22.4011V22.3853ZM63.9974 33.6017C63.9973 33.1825 64.0805 32.7675 64.2421 32.3808C64.4037 31.994 64.6405 31.6432 64.9387 31.3487C65.2369 31.0542 65.5906 30.8218 65.9793 30.665C66.3681 30.5082 66.784 30.4302 67.2032 30.4354H76.781C77.6207 30.4354 78.4261 30.769 79.0199 31.3628C79.6136 31.9566 79.9472 32.7619 79.9472 33.6017V36.7679H63.9974V33.6017ZM20.8021 22.4011V17.6043H30.4037V22.4011C30.3534 23.6406 29.8255 24.8127 28.9307 25.6719C28.0359 26.5311 26.8434 27.0109 25.6029 27.0109C24.3624 27.0109 23.1699 26.5311 22.2751 25.6719C21.3803 24.8127 20.8525 23.6406 20.8021 22.4011ZM25.5989 11.2006C26.5877 11.1983 27.5531 11.5012 28.3634 12.0678C29.1737 12.6345 29.7895 13.4373 30.1266 14.3668H21.0712C21.4084 13.4373 22.0242 12.6345 22.8345 12.0678C23.6448 11.5012 24.6102 11.1983 25.5989 11.2006ZM70.4011 59.2006V54.4038H80.0026V59.2006C79.9523 60.4401 79.4245 61.6121 78.5297 62.4713C77.6348 63.3306 76.4424 63.8104 75.2018 63.8104C73.9613 63.8104 72.7688 63.3306 71.874 62.4713C70.9792 61.6121 70.4514 60.4401 70.4011 59.2006ZM70.4011 48.0001H75.1979C76.1867 47.9978 77.1521 48.3007 77.9623 48.8673C78.7727 49.434 79.3884 50.2368 79.7256 51.1663H70.4011V48.0001ZM3.16623 68.8022V39.9974H46.4011V73.6149H35.2005V70.4486C35.196 69.0006 34.7015 67.5967 33.7974 66.4656C32.8934 65.3344 31.6331 64.5426 30.2216 64.2191C31.3668 62.8148 31.9954 61.0601 32.0026 59.2481V56.0819C32.0026 55.662 31.8358 55.2593 31.539 54.9624C31.2421 54.6655 30.8394 54.4988 30.4195 54.4988C27.6039 54.5099 24.8485 53.6833 22.504 52.1241L21.7124 51.5937C21.406 51.3852 21.0362 51.2909 20.6673 51.327C20.2985 51.3632 19.954 51.5276 19.6939 51.7916L16.4881 54.9579C16.3366 55.1063 16.2165 55.2838 16.1349 55.4796C16.0534 55.6754 16.012 55.8856 16.0132 56.0977V59.2639C16.0226 61.0769 16.6541 62.8317 17.8021 64.2349C17.4954 64.3068 17.1939 64.3994 16.8997 64.5119C15.6682 63.8167 14.642 62.8087 13.9248 61.5898C13.2076 60.3708 12.8249 58.9842 12.8153 57.57C12.8178 56.0575 13.1271 54.5611 13.7245 53.1716C14.3218 51.782 15.1948 50.528 16.2906 49.4854C17.3865 48.4428 18.6824 47.6334 20.1 47.106C21.5176 46.5786 23.0275 46.3442 24.5383 46.417C27.4608 46.6437 30.188 47.9725 32.1676 50.1344C34.1473 52.2962 35.2314 55.1296 35.2005 58.0608C35.1972 59.6475 35.5081 61.2192 36.1154 62.6851C36.7227 64.151 37.6143 65.4822 38.7388 66.6017L40.4723 68.3352C40.7725 68.6364 41.1801 68.8061 41.6054 68.8068C42.0307 68.8076 42.4389 68.6393 42.7401 68.3391C43.0414 68.0389 43.211 67.6313 43.2118 67.206C43.2125 66.7807 43.0443 66.3726 42.7441 66.0713L41.0106 64.3378C40.1867 63.5133 39.5334 62.5346 39.088 61.4576C38.6425 60.3805 38.4136 59.2263 38.4142 58.0608C38.4784 54.2953 37.0869 50.6503 34.53 47.8854C31.973 45.1205 28.4477 43.4489 24.6887 43.2191C21.4106 43.0524 18.1756 44.0227 15.5303 45.9658C15.1802 45.2167 14.6421 44.571 13.9684 44.0916C13.2947 43.6123 12.5083 43.3155 11.6859 43.2302C10.8634 43.1449 10.0329 43.274 9.27512 43.605C8.51738 43.936 7.85824 44.4575 7.36187 45.1188C6.86551 45.7801 6.54882 46.5586 6.44265 47.3787C6.33648 48.1987 6.44445 49.0322 6.75603 49.7982C7.06762 50.5641 7.57221 51.2363 8.22068 51.7493C8.86915 52.2623 9.63941 52.5987 10.4565 52.7257C9.90547 54.2492 9.61642 55.855 9.60158 57.475C9.60269 59.2315 10.0175 60.963 10.8123 62.5294C11.6072 64.0957 12.7598 65.4529 14.1768 66.4908C13.2818 67.6156 12.7961 69.0113 12.7995 70.4486V73.6149H8.00264C7.36805 73.6201 6.73873 73.4994 6.15114 73.2597C5.56355 73.0199 5.02936 72.666 4.57952 72.2184C4.12968 71.7708 3.77313 71.2383 3.53054 70.6519C3.28794 70.0655 3.16411 69.4368 3.16623 68.8022ZM19.2032 59.2006V56.6597L21.0079 54.855C23.3519 56.359 26.0234 57.2766 28.7968 57.5304V59.2006C28.7968 60.4728 28.2915 61.6929 27.3919 62.5925C26.4923 63.4921 25.2722 63.9974 24 63.9974C22.7278 63.9974 21.5077 63.4921 20.6081 62.5925C19.7085 61.6929 19.2032 60.4728 19.2032 59.2006ZM19.2032 67.2032H28.7968C29.6366 67.2032 30.4419 67.5368 31.0357 68.1306C31.6295 68.7244 31.9631 69.5297 31.9631 70.3695V73.5357H15.9974V70.3695C15.9973 69.9503 16.0805 69.5353 16.2421 69.1486C16.4037 68.7618 16.6405 68.411 16.9387 68.1165C17.2369 67.822 17.5906 67.5896 17.9793 67.4328C18.3681 67.276 18.7841 67.198 19.2032 67.2032ZM11.2005 49.599C10.8874 49.599 10.5813 49.5062 10.321 49.3322C10.0607 49.1583 9.85774 48.911 9.73792 48.6217C9.6181 48.3325 9.58675 48.0142 9.64783 47.7071C9.70892 47.4 9.85969 47.1179 10.0811 46.8965C10.3025 46.6751 10.5846 46.5243 10.8917 46.4632C11.1988 46.4021 11.5171 46.4335 11.8064 46.5533C12.0956 46.6731 12.3429 46.876 12.5168 47.1364C12.6908 47.3967 12.7836 47.7028 12.7836 48.0159C12.7836 48.4358 12.6168 48.8384 12.32 49.1353C12.0231 49.4322 11.6204 49.599 11.2005 49.599ZM63.3245 86.3985H32.7071L36.3087 76.7811H59.6913L63.3245 86.3985ZM67.2032 73.6149V70.4486C67.2032 69.6089 67.5368 68.8035 68.1305 68.2098C68.7243 67.616 69.5297 67.2824 70.3694 67.2824H79.971C80.8107 67.2824 81.6161 67.616 82.2098 68.2098C82.8036 68.8035 83.1372 69.6089 83.1372 70.4486V73.6149H67.2032Z" fill="#FFA819"/>
<path d="M88.0053 0H8.00264C5.88149 0.00418373 3.84842 0.84866 2.34854 2.34854C0.84866 3.84842 0.00418373 5.88149 0 8.00264L0 20.8021C0 21.222 0.166792 21.6246 0.463683 21.9215C0.760575 22.2184 1.16325 22.3852 1.58311 22.3852C2.00298 22.3852 2.40565 22.2184 2.70254 21.9215C2.99944 21.6246 3.16623 21.222 3.16623 20.8021V8.00264C3.16202 7.36634 3.28424 6.73554 3.52581 6.14686C3.76737 5.55818 4.12346 5.02334 4.5734 4.5734C5.02334 4.12346 5.55818 3.76737 6.14686 3.52581C6.73554 3.28424 7.36634 3.16202 8.00264 3.16623H88.0053C89.2782 3.16832 90.4983 3.67546 91.3976 4.5763C92.297 5.47714 92.8021 6.69805 92.8021 7.97098V46.4011C92.8021 46.8209 92.9689 47.2236 93.2658 47.5205C93.5627 47.8174 93.9654 47.9842 94.3852 47.9842C94.8051 47.9842 95.2078 47.8174 95.5047 47.5205C95.8015 47.2236 95.9683 46.8209 95.9683 46.4011V8.00264C95.9663 5.88768 95.1279 3.85936 93.6361 2.36015C92.1443 0.860952 90.1202 0.0125383 88.0053 0V0Z" fill="#FFA819"/>
<path d="M52.8048 48.0001C52.8048 48.9488 53.0861 49.8762 53.6132 50.6651C54.1403 51.4539 54.8894 52.0687 55.7659 52.4318C56.6424 52.7948 57.6069 52.8898 58.5374 52.7047C59.4679 52.5197 60.3226 52.0628 60.9935 51.392C61.6643 50.7211 62.1212 49.8664 62.3063 48.9359C62.4914 48.0054 62.3964 47.0409 62.0333 46.1644C61.6702 45.2879 61.0554 44.5387 60.2666 44.0117C59.4777 43.4846 58.5503 43.2032 57.6016 43.2032C56.3294 43.2032 55.1093 43.7086 54.2097 44.6082C53.3101 45.5078 52.8048 46.7279 52.8048 48.0001ZM59.2005 48.0001C59.2005 48.3132 59.1077 48.6193 58.9337 48.8796C58.7598 49.14 58.5125 49.3429 58.2233 49.4627C57.934 49.5825 57.6157 49.6139 57.3086 49.5528C57.0015 49.4917 56.7194 49.3409 56.498 49.1195C56.2766 48.8981 56.1258 48.616 56.0647 48.3089C56.0037 48.0018 56.035 47.6835 56.1548 47.3942C56.2746 47.105 56.4776 46.8577 56.7379 46.6838C56.9982 46.5098 57.3043 46.417 57.6174 46.417C58.0373 46.417 58.44 46.5838 58.7369 46.8807C59.0338 47.1775 59.2005 47.5802 59.2005 48.0001Z" fill="#FFA819"/>
<path d="M15.9974 11.2006C15.9974 10.2519 15.7161 9.3245 15.189 8.53567C14.6619 7.74683 13.9127 7.13201 13.0362 6.76895C12.1597 6.40589 11.1952 6.31089 10.2647 6.49598C9.33424 6.68107 8.47953 7.13792 7.80868 7.80877C7.13783 8.47962 6.68097 9.33433 6.49589 10.2648C6.3108 11.1953 6.40579 12.1598 6.76885 13.0363C7.13192 13.9128 7.74674 14.662 8.53557 15.1891C9.32441 15.7161 10.2518 15.9975 11.2006 15.9975C12.4728 15.9975 13.6928 15.4921 14.5924 14.5925C15.492 13.6929 15.9974 12.4728 15.9974 11.2006ZM9.60161 11.2006C9.60161 10.8875 9.69445 10.5815 9.86841 10.3211C10.0424 10.0608 10.2896 9.85786 10.5789 9.73804C10.8682 9.61822 11.1865 9.58687 11.4936 9.64795C11.8007 9.70904 12.0827 9.85981 12.3042 10.0812C12.5256 10.3026 12.6763 10.5847 12.7374 10.8918C12.7985 11.1989 12.7671 11.5172 12.6473 11.8065C12.5275 12.0958 12.3246 12.343 12.0643 12.517C11.8039 12.6909 11.4978 12.7838 11.1847 12.7838C10.7649 12.7838 10.3622 12.617 10.0653 12.3201C9.7684 12.0232 9.60161 11.6205 9.60161 11.2006Z" fill="#FFA819"/>
</svg>

<svg xmlns="http://www.w3.org/2000/svg" width="96" height="96" fill="#ffa819" xmlns:v="https://vecta.io/nano"><path d="M94.4 51.2c-.42 0-.82.17-1.12.46s-.46.7-.46 1.12V68.8a4.8 4.8 0 0 1-4.81 4.82h-1.58v-3.17a6.4 6.4 0 0 0-4.98-6.23 7.9 7.9 0 0 0 1.78-4.97V52.8a8 8 0 0 0-8.02-8h-6.4c-.42 0-.82.17-1.12.46s-.46.7-.46 1.12V59.2A7.9 7.9 0 0 0 69 64.17a6.4 6.4 0 0 0-4.99 6.23v3.17h-4.8V71.7c.93-.33 1.73-.94 2.3-1.75a4.7 4.7 0 0 0 .86-2.76V65.6a4.8 4.8 0 0 0-9.6 0v1.58c-.01 1 .3 1.95.86 2.76a4.7 4.7 0 0 0 2.3 1.75v1.9H49.6V40H88c.42 0 .82-.17 1.12-.46s.46-.7.46-1.12-.17-.82-.46-1.12-.7-.46-1.12-.46h-4.8v-3.17a6.3 6.3 0 0 0-1.32-3.85 11.2 11.2 0 0 0 4.52-8.94 14.4 14.4 0 0 0-2.3-7.9 14.4 14.4 0 0 0-6.25-5.34 14.3 14.3 0 0 0-8.16-1.04 14.4 14.4 0 0 0-7.39 3.6 4.8 4.8 0 0 0-8.44-2.02A4.8 4.8 0 0 0 57.6 16a4.6 4.6 0 0 0 .87-.09 14.3 14.3 0 0 0-.87 4.89 11.2 11.2 0 0 0 4.53 8.94c-.86 1.1-1.32 2.46-1.33 3.85v3.17H49.6V8c0-.42-.17-.82-.46-1.12s-.7-.46-1.12-.46-.82.17-1.12.46-.46.7-.46 1.12v28.8H17.6v-3.17c0-.84.33-1.65.93-2.24a3.2 3.2 0 0 1 2.24-.93h9.63c.66 0 1.3.2 1.84.6s.94.92 1.15 1.55c.15.4.45.72.84.9s.83.2 1.23.04.72-.45.9-.84.2-.83.04-1.23a6.4 6.4 0 0 0-4.6-4.08 7.9 7.9 0 0 0 1.79-4.98V16a8 8 0 0 0-8-7.75 8 8 0 0 0-8 7.75v6.4a7.9 7.9 0 0 0 1.78 4.97 6.4 6.4 0 0 0-4.99 6.23v3.17H3.17V27.2c0-.42-.17-.82-.46-1.12s-.7-.46-1.12-.46-.82.17-1.12.46-.46.7-.46 1.12v41.6a8 8 0 0 0 8 7.98h24.9l-3.6 9.62h-6.9a8 8 0 0 0-8 8c0 .42.17.82.46 1.12s.7.46 1.12.46h41.6c.42 0 .82-.17 1.12-.46s.46-.7.46-1.12-.17-.82-.46-1.12-.7-.46-1.12-.46H17.87a4.8 4.8 0 0 1 4.53-3.17h51.2a4.8 4.8 0 0 1 4.53 3.17H64c-.42 0-.82.17-1.12.46s-.46.7-.46 1.12.17.82.46 1.12.7.46 1.12.46h16c.42 0 .82-.17 1.12-.46s.46-.7.46-1.12a8 8 0 0 0-7.97-8h-6.9l-3.62-9.62H88a8 8 0 0 0 7.99-8V52.8c0-.42-.17-.82-.46-1.12s-.7-.46-1.12-.46v-.02zM56 65.6c0-.42.17-.82.46-1.12s.7-.46 1.12-.46.82.17 1.12.46.46.7.46 1.12v1.58c0 .42-.17.82-.46 1.12s-.7.46-1.12.46-.82-.17-1.12-.46-.46-.7-.46-1.12V65.6zm0-54.4c0-.3.1-.62.27-.88s.42-.46.7-.58.6-.15.9-.1.6.2.8.43.37.5.43.8.03.63-.1.9-.32.54-.58.7-.57.27-.88.27c-.42 0-.82-.17-1.12-.46s-.46-.7-.46-1.12zm4.8 9.6a11.2 11.2 0 1 1 22.4 0c-.01 1.4-.38 2.76-1.07 3.96a8.2 8.2 0 0 1-2.9 2.92 5.9 5.9 0 0 0-1.01-.32A7.9 7.9 0 0 0 80 22.4v-3.17c0-.42-.17-.82-.46-1.12s-.7-.46-1.12-.46c-.8 0-1.6-.16-2.36-.48a6.2 6.2 0 0 1-2-1.34l-.94-.94c-.15-.15-.32-.27-.52-.35a1.6 1.6 0 0 0-.6-.12c-.2 0-.42.04-.6.12s-.37.2-.52.35l-.93.94c-1.15 1.14-2.7 1.8-4.33 1.8-.42 0-.82.17-1.12.46s-.46.7-.46 1.12v3.17a7.9 7.9 0 0 0 1.79 4.97 6.2 6.2 0 0 0-1.01.32 8 8 0 0 1-3.96-6.89l-.05.02zm6.4 1.58v-1.73a9.4 9.4 0 0 0 4.8-2.37 9.5 9.5 0 0 0 4.8 2.37v1.74A4.8 4.8 0 0 1 72 27a4.8 4.8 0 0 1-4.8-4.61h0zM64 33.6a3.2 3.2 0 0 1 .24-1.22c.16-.4.4-.74.7-1.03s.65-.53 1.04-.68a3.4 3.4 0 0 1 1.22-.23h9.58c.84 0 1.65.33 2.24.93a3.2 3.2 0 0 1 .93 2.24v3.17H64V33.6zM20.8 22.4v-4.8h9.6v4.8a4.8 4.8 0 0 1-4.8 4.61 4.8 4.8 0 0 1-4.8-4.61zm4.8-11.2a4.8 4.8 0 0 1 4.53 3.17h-9.06a4.8 4.8 0 0 1 4.53-3.17zm44.8 48v-4.8H80v4.8a4.8 4.8 0 0 1-4.8 4.61 4.8 4.8 0 0 1-4.8-4.61zm0-11.2h4.8a4.8 4.8 0 0 1 4.53 3.17H70.4V48zM3.17 68.8V40H46.4v33.6H35.2v-3.17a6.4 6.4 0 0 0-4.98-6.23A7.9 7.9 0 0 0 32 59.25v-3.17c0-.42-.17-.82-.46-1.12s-.7-.46-1.12-.46a14.2 14.2 0 0 1-7.92-2.37l-.8-.53c-.3-.2-.68-.3-1.05-.27s-.7.2-.97.46l-3.2 3.17c-.15.15-.27.33-.35.52a1.6 1.6 0 0 0-.12.62v3.17a7.9 7.9 0 0 0 1.79 4.97 7 7 0 0 0-.9.28 8 8 0 0 1-4.07-6.94 11.2 11.2 0 0 1 11.73-11.15 11.6 11.6 0 0 1 7.63 3.72c1.98 2.16 3.06 5 3.03 7.93a12 12 0 0 0 3.54 8.54l1.73 1.73a1.6 1.6 0 1 0 2.27-2.27L41 64.34c-.82-.82-1.48-1.8-1.92-2.88a8.9 8.9 0 0 1-.67-3.4 14.6 14.6 0 0 0-13.73-14.84 14.2 14.2 0 0 0-9.16 2.75 4.8 4.8 0 0 0-3.84-2.74 4.8 4.8 0 0 0-4.93 6.57 4.8 4.8 0 0 0 3.7 2.93c-.55 1.52-.84 3.13-.85 4.75a11.2 11.2 0 0 0 4.58 9.02 6.3 6.3 0 0 0-1.38 3.96v3.17H8a4.8 4.8 0 0 1-4.83-4.82zm16.04-9.6v-2.54l1.8-1.8a17.5 17.5 0 0 0 7.8 2.68v1.67a4.8 4.8 0 1 1-9.61-.01zm0 8h9.6c.84 0 1.65.33 2.24.93a3.2 3.2 0 0 1 .93 2.24v3.17H16v-3.17a3.2 3.2 0 0 1 .24-1.22c.16-.4.4-.74.7-1.03s.65-.53 1.04-.68a3.4 3.4 0 0 1 1.22-.23zm-8-17.6c-.3 0-.62-.1-.88-.27s-.46-.42-.58-.7-.15-.6-.1-.9.2-.6.43-.8.5-.37.8-.43.63-.03.9.1.54.32.7.58.27.57.27.88c0 .42-.17.82-.46 1.12s-.7.46-1.12.46zm52.12 36.8H32.7l3.6-9.62h23.4l3.63 9.62zm3.87-12.8v-3.17c0-.84.33-1.65.93-2.24a3.2 3.2 0 0 1 2.24-.93h9.6c.84 0 1.65.33 2.24.93a3.2 3.2 0 0 1 .93 2.24v3.17H67.2zM88 0H8a8 8 0 0 0-5.65 2.35A8 8 0 0 0 0 8v12.8c0 .42.17.82.46 1.12s.7.46 1.12.46.82-.17 1.12-.46.46-.7.46-1.12V8A4.8 4.8 0 0 1 8 3.17h80a4.8 4.8 0 0 1 4.8 4.8V46.4c0 .42.17.82.46 1.12s.7.46 1.12.46.82-.17 1.12-.46.46-.7.46-1.12V8A8 8 0 0 0 88 0h0zM52.8 48a4.8 4.8 0 0 0 8.19 3.39 4.8 4.8 0 0 0-3.39-8.19 4.8 4.8 0 0 0-4.8 4.8zm6.4 0c0 .3-.1.62-.27.88s-.42.46-.7.58-.6.15-.9.1-.6-.2-.8-.43-.37-.5-.43-.8-.03-.63.1-.9.32-.54.58-.7.57-.27.88-.27c.42 0 .82.17 1.12.46s.46.7.46 1.12zM16 11.2a4.8 4.8 0 0 0-8.19-3.39A4.8 4.8 0 0 0 11.2 16a4.8 4.8 0 0 0 4.8-4.8zm-6.4 0c0-.3.1-.62.27-.88s.42-.46.7-.58.6-.15.9-.1.6.2.8.43.37.5.43.8.03.63-.1.9-.32.54-.58.7-.57.27-.88.27c-.42 0-.82-.17-1.12-.46s-.46-.7-.46-1.12z"/></svg>
